X: 1
T: Harvest Home Hornpipe
P: piffero primo a0580
O: Fifers Delight
%R: hornpipe
F: http://ancients.sudburymuster.org/mus/col/pdf/hornpipes1F.pdf
Z: 2020 John Chambers <jc:trillian.mit.edu>
M: 2/4
L: 1/16
K: D
AF |\
DAFA DAFA | defe dcBA | eAfA gAfA | edcB AGFE |\
DAFA DAFA |
            defe dcBA | eAfA gAeA | dfec d2 :: cd |\
eAAA fAAA | eAAA fAAA |
                        eAfA gAfA | edcB AGFE |\
DAFA DAFA | defe dcBA | eAfA gAeA | dfec d2 :|
